papirus/16x16/apps/atunes.svg

<?xml version="1.0" encoding="UTF-8" standalone="no"?>
<svg id="svg8276" xmlns:rdf="http://www.w3.org/1999/02/22-rdf-syntax-ns#" xmlns="http://www.w3.org/2000/svg" viewBox="0 0 16 16" width="16" version="1.1" xmlns:cc="http://creativecommons.org/ns#" height="16" xmlns:dc="http://purl.org/dc/elements/1.1/">
 <metadata id="metadata8281">
  <rdf:RDF>
   <cc:Work rdf:about="">
    <dc:format>image/svg+xml</dc:format>
    <dc:type rdf:resource="http://purl.org/dc/dcmitype/StillImage"/>
    <dc:title/>
   </cc:Work>
  </rdf:RDF>
 </metadata>
 <g id="layer1" transform="translate(0 -1036.4)">
  <g id="g11590" transform="translate(0 1036.4)">
   <rect id="rect4255-5" ry="8" rx="8" transform="matrix(0,-1,-1,0,0,0)" height="16" width="16" y="-16" x="-16" fill="#ccc"/>
   <path id="path9988" fill="#3c8cf8" d="m11 2c-2.0074 0-2 2-2 2v3.3418a3.5 3.5 0 0 0 -1.5 -0.3418 3.5 3.5 0 0 0 -3.5 3.5 3.5 3.5 0 0 0 3.5 3.5 3.5 3.5 0 0 0 3.457 -2.986c0.005 0 0.043-0.014 0.043-0.014v-0.5-6.5h2s-0.006-1.9803-2-2z"/>
  </g>
 </g>
</svg>

<?xml version="1.0" encoding="UTF-8" standalone="no"?>
<svg
   xmlns:dc="http://purl.org/dc/elements/1.1/"
   xmlns:cc="http://creativecommons.org/ns#"
   xmlns:rdf="http://www.w3.org/1999/02/22-rdf-syntax-ns#"
   xmlns:svg="http://www.w3.org/2000/svg"
   xmlns="http://www.w3.org/2000/svg"
   version="1.1"
   id="svg8276"
   viewBox="0 0 16 16"
   height="16"
   width="16">
  <defs
     id="defs8278" />
  <metadata
     id="metadata8281">
    <rdf:RDF>
      <cc:Work
         rdf:about="">
        <dc:format>image/svg+xml</dc:format>
        <dc:type
           rdf:resource="http://purl.org/dc/dcmitype/StillImage" />
        <dc:title></dc:title>
      </cc:Work>
    </rdf:RDF>
  </metadata>
  <g
     transform="translate(0,-1036.3622)"
     id="layer1">
    <g
       id="g11590"
       transform="translate(0,1036.3622)">
      <rect
         style="fill:#cccccc"
         id="rect4255-5"
         ry="8"
         rx="8"
         transform="matrix(0,-1,-1,0,0,0)"
         height="16"
         width="16"
         y="-16"
         x="-15.999983" />
      <path
         style="fill:#3c8cf8"
         id="path9988"
         d="M 11,2 C 8.9926,2 9,4 9,4 L 9,7.3418 A 3.5,3.5 0 0 0 7.5,7 3.5,3.5 0 0 0 4,10.5 3.5,3.5 0 0 0 7.5,14 3.5,3.5 0 0 0 10.957,11.014 C 10.962,11.014 11,11 11,11 L 11,10.5 11,4 13,4 C 13,4 12.994,2.0197 11,2 Z" />
    </g>
  </g>
</svg>
